assets/images/simple-illustrations/simple-illustration__smartscan.svg

<svg xmlns="http://www.w3.org/2000/svg" width="97" height="96" fill="none" viewBox="0 0 97 96"><path fill="#E5FAFE" d="M29.2957 75.9774L34.0887 73.7742L38.7527 76.6277L43.9383 73.9031L49.1239 76.7567L53.4013 74.2957L58.5868 76.7567L62.8642 73.7742L67.5283 76.2352C67.5283 76.2352 66.4912 67.5515 66.4912 66.6433C66.4912 65.7351 68.6943 41.3717 68.4365 35.9283C68.1787 30.4849 66.4912 19.9849 66.4912 19.9849L61.1767 22.5747L55.4755 19.8501L51.4559 22.1821L45.4911 19.4575L41.8641 22.1821L36.2918 19.3286L32.6648 22.5689L27.4792 20.1079C27.4792 20.1079 30.2039 29.0494 29.4246 39.6783C28.6453 50.3073 26.6999 70.2644 29.2957 75.9715V75.9774Z"/><path stroke="#008C59" stroke-linecap="round" stroke-linejoin="round" stroke-width="3" d="M30.2686 9.42627H19.9033"/><path stroke="#008C59" stroke-linecap="round" stroke-linejoin="round" stroke-width="3" d="M19.9033 9.55518V19.9205"/><path stroke="#008C59" stroke-linecap="round" stroke-linejoin="round" stroke-width="3" d="M65.0024 9.42627H75.3736"/><path stroke="#008C59" stroke-linecap="round" stroke-linejoin="round" stroke-width="3" d="M75.3743 9.55518V19.9205"/><path stroke="#008C59" stroke-linecap="round" stroke-linejoin="round" stroke-width="3" d="M30.2686 86.3485H19.9033"/><path stroke="#008C59" stroke-linecap="round" stroke-linejoin="round" stroke-width="3" d="M19.9033 86.2195V75.8484"/><path stroke="#008C59" stroke-linecap="round" stroke-linejoin="round" stroke-width="3" d="M65.0024 86.3485H75.3736"/><path stroke="#008C59" stroke-linecap="round" stroke-linejoin="round" stroke-width="3" d="M75.3743 86.2195V75.8484"/><path stroke="#002140" stroke-linecap="round" stroke-linejoin="round" d="M27.4211 19.7505C33.2513 31.2115 24.8957 66.866 28.9739 76.6278"/><path stroke="#002140" stroke-linecap="round" stroke-linejoin="round" d="M66.3037 19.7505C72.1338 31.2115 63.7783 66.866 67.8565 76.6278"/><path stroke="#002140" stroke-linecap="round" stroke-linejoin="round" d="M28.9741 76.6278L34.107 73.4227L39.2457 76.663L43.9449 73.3231L49.0953 76.9208L53.4254 73.5692L58.4762 76.7977L62.6071 73.2587L67.8571 76.6278"/><path stroke="#002140" stroke-linecap="round" stroke-linejoin="round" d="M66.3042 19.7506L61.0717 22.6041L55.933 19.3698L51.2338 22.7096L46.0834 19.1119L41.7533 22.4577L36.7024 19.235L32.5716 22.7741L27.3215 19.4049"/><path stroke="#002140" stroke-linecap="round" stroke-linejoin="round" d="M35.0967 30.2565H37.4404"/><path stroke="#002140" stroke-linecap="round" stroke-linejoin="round" d="M41.946 30.2565H57.7196"/><path stroke="#002140" stroke-linecap="round" stroke-linejoin="round" d="M59.9751 30.2565H62.3189"/><path stroke="#002140" stroke-linecap="round" stroke-linejoin="round" d="M34.5166 67.2H36.8604"/><path stroke="#002140" stroke-linecap="round" stroke-linejoin="round" d="M41.3657 67.2H57.1334"/><path stroke="#002140" stroke-linecap="round" stroke-linejoin="round" d="M59.3892 67.2H61.7329"/><path stroke="#002140" stroke-linecap="round" stroke-linejoin="round" d="M35.876 39.1041H58.9152"/><path stroke="#002140" stroke-linecap="round" stroke-linejoin="round" d="M35.876 48.532H58.9152"/><path stroke="#002140" stroke-linecap="round" stroke-linejoin="round" d="M36.5557 58.5458H47.2491"/><path fill="#03D47C" d="M83.1842 46.2819H13.1936V52.112H83.1842V46.2819Z"/><path stroke="#002140" stroke-linecap="round" stroke-linejoin="round" d="M82.7101 46.4108H14.114C13.5153 46.4108 13.03 46.8961 13.03 47.4948V51.192C13.03 51.7907 13.5153 52.276 14.114 52.276H82.7101C83.3088 52.276 83.7941 51.7907 83.7941 51.192V47.4948C83.7941 46.8961 83.3088 46.4108 82.7101 46.4108Z"/></svg>

<svg xmlns="http://www.w3.org/2000/svg" width="97" height="96" fill="none" viewBox="0 0 97 96"><path fill="#e5fafe" d="m29.296 75.977 4.793-2.203 4.664 2.854 5.185-2.725 5.186 2.854 4.277-2.461 5.186 2.46 4.277-2.982 4.664 2.461s-1.037-8.683-1.037-9.592c0-.908 2.203-25.271 1.945-30.715s-1.945-15.943-1.945-15.943l-5.314 2.59-5.702-2.725-4.02 2.332-5.964-2.724-3.627 2.724-5.572-2.853-3.627 3.24-5.186-2.461s2.725 8.941 1.946 19.57c-.78 10.63-2.725 30.586-.13 36.294z"/><path stroke="#008c59" stroke-linecap="round" stroke-linejoin="round" stroke-width="3" d="M30.269 9.426H19.903m0 .129v10.366M65.002 9.426h10.372m0 .129v10.366M30.269 86.349H19.903m0-.129V75.848m45.099 10.501h10.372m0-.129V75.848"/><path stroke="#002140" stroke-linecap="round" stroke-linejoin="round" d="M27.421 19.75c5.83 11.462-2.525 47.116 1.553 56.878m37.33-56.878c5.83 11.462-2.526 47.116 1.552 56.878"/><path stroke="#002140" stroke-linecap="round" stroke-linejoin="round" d="m28.974 76.628 5.133-3.205 5.139 3.24 4.699-3.34 5.15 3.598 4.33-3.352 5.051 3.229 4.131-3.54 5.25 3.37M66.304 19.75l-5.232 2.854-5.139-3.234-4.7 3.34-5.15-3.598-4.33 3.346-5.05-3.223-4.131 3.54-5.25-3.37m7.775 10.852h2.343m4.506 0H57.72m2.255 0h2.344M34.517 67.2h2.343m4.506 0h15.767m2.257 0h2.343M35.876 39.104h23.04m-23.04 9.428h23.04m-22.36 10.014h10.693"/><path fill="#03d47c" d="M83.184 46.282h-69.99v5.83h69.99z"/><path stroke="#002140" stroke-linecap="round" stroke-linejoin="round" d="M82.71 46.41H14.114c-.599 0-1.084.486-1.084 1.085v3.697c0 .599.485 1.084 1.084 1.084H82.71c.599 0 1.084-.485 1.084-1.084v-3.697c0-.599-.485-1.084-1.084-1.084"/></svg>
